X:1
T:Christ Is Born
T:Christ Is Born
T:Ira Bishop Wilson
T:James Rowe, 1907
T:Public Domain Courtesy of the Cyber Hymnal™
T:Public Domain Courtesy of the Cyber Hymnal™
C:Ira Bishop Wilson
Z:Public Domain
Z:Courtesy of the Cyber Hymnal™
%%score ( 1 2 ) ( 3 4 )
L:1/8
Q:1/4=102
M:4/4
K:Bb
V:1 treble 
V:2 treble 
V:3 bass 
V:4 bass 
V:1
 [B,D]>[CE] | [DF]2 [Fd]2 [Ec]2 [DB]2 | [EB]2 [EA]4 [CA]>[DB] | [Ec]6 [Fd]>[Ec] | %4
w: 1.~Hark! a|might- y host is|sing- ing, Christ is|born! Christ is|
w: 2.~Spread the|news to ev- ery|na- tion, Christ is|born! Christ is|
w: 3.~Haste, ye|peo- ple, haste to|greet Him, Christ is|born! Christ is|
 [DB]6 [B,D]>[CE] | [DF]2 [Fd]2 [Ec]2 [DB]2 | [FA]2 [EG]4 [FA]>[EG] | [DF]4 [Ec]4 | [DB]6 F>^F | %9
w: born! Thro’ the|sky glad strains are|wing- ing— Christ the|King is|born! Let us|
w: born! Fill the|air with ju- bi-|la- tion— Christ the|King is|born! Hope in|
w: born! Come with|out- stretched arms to|meet Him— Christ the|King is|born! Ye who|
 G4- G>G A>d | [DFc]2 B4 [DF]2 F>G | [EA]3 [CE] [EA]2 [EG]2 | [DG]2 F4 F>^F | G4- G>G A>d | %14
w: join * the swell- ing|cho- rus Of the an-|* gels sing- ing|o’er us; Peace and|glad- * ness are be-|
w: hope- * less hearts is|spring- ing, Souls long bowed|* with grief are|sing- ing; Joy to|all * His birth is|
w: long * in vain have|striv- en, Hearts by sin|* or sor- row|riv- en, Yours the|gift * which God has|
 [DFc]2 B4 [DF]2 [DB]>[DB] | A4 [=EG]4 | !fermata!c6 x2 ||"^Refrain" [DFBd]2 [DFBd]2 d4 [DFB]2 | %18
w: fore us— Christ the King|* is|born!||
w: bring- ing— Christ the King|* is|born!||
w: giv- en— Christ the King|* is|born!|Christ is born! Christ|
 [DFc]2 [DFc]2 c4 [DF]2 | B3 (z A) [Dc]2 [DB]2 | [EB]2 [EA]2 [EA]FAc | %21
w: |||
w: |||
w: * is born! Born|* * a- gain|* for men this morn; For-|
 !>![Fc]2 !>![Fe]3 [FA][FB][Fc] | !>![Fd]2 !>![Fd]4 [Fd]2 | [=Ed]3 [Ec] [Fd]3 [_Ec] | [DB]6 |] %25
w: ||||
w: ||||
w: ev- er praise Him, O|mag- ni- fy|Him, For Christ the|King|
V:2
 x2 | x8 | x8 | x8 | x8 | x8 | x8 | x8 | x8 | (E2 E2 E2) E2 | x2 [DF]2 x6 | x8 | x2 (D2 D2) x2 | %13
 (E2 E2 E2) E2 | x2 [DF]2 x6 | (C2 F2) x4 | (F2 =E2 _E2 (3ABc) || x4 [DFB]2 x4 | x4 [DF]2 x4 | %19
 D2 D2 x5 | x8 | x8 | x8 | x8 | x6 |] %25
V:3
 [B,,F,]>[B,,F,] | [B,,B,]2 [B,,B,]2 [B,,B,]2 [B,,F,]2 | [C,F,]2 [C,F,]4 z2 | %3
w: ~ ~|~ ~ ~ ~|~ ~|
 z2 [F,A,]>[F,A,] [F,A,]2 z2 | z2 [B,,F,]>[B,,F,] [B,,F,]2 [B,,F,]>[B,,F,] | %5
w: Christ is born!|Christ is born! ~ ~|
 [B,,B,]2 [B,,B,]2 [B,,B,]2 [B,,B,]2 | [E,B,]2 [E,B,]4 z2 | ([F,B,]2 [F,B,]2) ([F,A,]2 F,2) | %8
w: ~ ~ ~ ~|~ ~|~ * ~ *|
 [B,,F,]6 z2 | C,2 F,2 F,,2 F,2 | B,,2 F,2 F,,2 F,2 x2 | C,2 F,2 F,,2 F,2 | B,,2 F,2 B,2 z2 | %13
w: ~|~ ~ ~ ~|~ ~ ~ ~|~ ~ ~ ~|~ ~ ~|
 C,2 F,2 F,,2 F,2 | B,,2 F,2 B,2 z2 x2 | [B,,F,]2 [C,A,]2 [C,C]2 [B,C]2 | %16
w: ~ ~ ~ ~|~ ~ ~|Christ the King, the|
 [A,C]2 [G,B,]2 [F,A,]2 z2 || [B,,F,]2 [F,,F,]2 [B,,F,]2 [F,,F,]2 x2 | %18
w: King is born!||
 [B,,F,]2 [F,,F,]2 [B,,F,]2 [F,,F,]2 x2 | [B,,F,]2 [F,,F,]2 [B,,F,]2 [F,,F,]2 x | %20
w: ||
 [C,F,]2 [F,,F,]2 [C,F,] z3 | !>![F,A,]2 !>![F,A,]3 [E,C][D,B,][C,A,] | !>![B,,B,]2 B,4 [G,=B,]2 | %23
w: |||
 [C,B,]3 [C,B,] [F,A,]3 F, | [B,,F,]6 |] %25
w: ||
V:4
 x2 | x8 | x8 | x8 | x8 | x8 | x8 | x6 F,2 | x8 | x8 | x10 | x8 | x8 | x8 | x10 | x8 | x8 || x10 | %18
 x10 | x9 | x8 | x8 | x2 !>!=B,4 x2 | x7 F, | x6 |] %25

